X:39
T:1776-Adam Bells March-1812
C:Donated by Thos. B. Jobe, Bugler Co.M.8th O.V.C.
S:American Veteran Fifer #39
M:2/4
L:1/16
Q:1/8=180
K:D 
%%MIDI program 72
%%MIDI transpose 8
%%MIDI ratio 3 1
E2B2B2A2 | B2BA BcdB | AFDF AFDF | A2AB A2GF |
E2B2B2A2 | B2B2g2e2 | dcB2 AGF2 | G2E2 E4 :|
|: e2ee e2g2 | e2ee e2f2| d2dd d2f2| d2dd d2f2|
e2ee e2g2 | e2ee e2f2| gfed edBA | B2E2 E4 :|


